X: 58
T: Violet Tulloch's Welcome to the Crask of Aigas
C:Phil Cunningham
M:C
L:1/8
K:D
a>g| f<a g>f e>d B<e | d>B A<G (e2 e>)f |g>B c>B A<d B>G | F2 E2 E2 a>g |
f<a g>f e>d B<e | d>BA<G (e2 e>)f |g>Bc>B A<dB>G |1 F<A G>E D2 :|2 F>A G<E (3DED C>B,||
| A,>A, A,>E C<E E>F | A>B c<A (e2 e>)f|g>B c>BA<d B>G|1 F2 E2 E>D C>B,|
A,>A, A,>E C<E E>F |A>B c<A (e2 e>)f | g>B c>B A<d B>G|F>A G>E D2 C>B, :|2
F2 E2 E2 a>g| f<a g>f e>d B<e |d>B A<G (e2 e>)f| g>Bc>B A<d B>G | F<A G>E D2 ||

%%sep 2 1 500

